X: 5088
T: Bridge End
R: waltz
M: 3/4
K: Dmajor
||D2 AF AF|EB BA Bd|D2 AF Ad|ef dB AF|
D2 AF AF|EB BA Bd|D2 AF Ad|ef dB AB||
d>f af dA|Be dB AB|df af ed|Be ef e2|
df af ed|Be dB AB|df bf af|ef dB AF||D6||

